X: 75
T:Spoil The Dance
M:4/4
R:reel
F:http://blackrosetheband.googlepages.com/ABCTUNES.ABC May 2009
S:Lunasa - Redwood Track 5
K:Ador
A3G ABBA | GBdB AGEG | A3G ABBA | GBdB AGEG |
A3G ABBA | GBdB AGEG | A3G ABBA | GBdB A2 ef |
ge (3eee gede | geee a2ba | ge (3eee gedB | GABG A2 ef |
ge (3eee gede | geee a2ga | (3bag af g2 fd | eBdB AGEG |

